X:1
T:BWV253 Soprano
C:Music21
L:1/4
M:4/4
K:A
V:1 name="Melody" clef=treble
%%MIDI program 1 40
 c/d/ e c A | B c d c | B A A3/2 B/ | c c B/A/ B | A3  c | B c A F | B A B c | A A A3/2 B/ |
V:2 name="Chords" clef=treble
%%MIDI program 2 0
[A,CE] [A,CE] [CEA] [A,CE] | [E,^GB,] [A,CE] [E,^GB,] [E,^GB,] | [E,^GB,] [A,CE] [A,CE]3/2 [E,^GB,]/ | [A,CE] [A,CE] [E,^GB,] [E,^GB,] | [A,CE] [A,CE] [CEA] [A,CE] | [E,^GB,] [A,CE] [DFA] [DFA] | [E,^GB,] [CEA] [E,^GB,] [A,CE] | [DFA] [CEA] [A,CE]3/2 [E,^GB,]/ |]
